bots/hooky/seasonal/halloween.svg

<svg width="2048" height="2048" fill="none" xmlns="http://www.w3.org/2000/svg"><g clip-path="url(#a)"><path fill="url(#b)" d="M0 0h2048v2048H0z"/><g filter="url(#c)"><path d="M818.079 1038.28c7.581-26.55-7.799-54.225-34.352-61.807-26.553-7.581-54.224 7.799-61.806 34.347l96.158 27.46Zm-96.158-27.46a286.897 286.897 0 0 1-82.519 133.2l67.4 73.87a386.963 386.963 0 0 0 111.277-179.61l-96.158-27.46Zm-82.519 133.2a286.968 286.968 0 0 1-140.191 70l18.55 98.26a386.996 386.996 0 0 0 189.041-94.39l-67.4-73.87Zm-140.191 70a287.024 287.024 0 0 1-156.064-14.07l-35.829 93.36a387.01 387.01 0 0 0 210.443 18.97l-18.55-98.26Zm-156.064-14.07A287.01 287.01 0 0 1 217.742 1106l-79.529 60.62a387.01 387.01 0 0 0 169.105 126.69l35.829-93.36ZM217.742 1106a286.942 286.942 0 0 1-57.358-145.808l-99.518 9.809a386.894 386.894 0 0 0 77.347 196.619l79.529-60.62Zm-57.358-145.808a286.923 286.923 0 0 1 27.789-154.198l-89.834-43.932a386.933 386.933 0 0 0-37.473 207.939l99.518-9.809Zm27.789-154.198c22.201-45.398 64.192-86.455 111.873-116.542l-53.364-84.571C188.618 641.52 131.068 695.138 98.34 762.062l89.833 43.932ZM392.645 0v415.592h100V0h-100Zm-92.599 689.452c44.624-28.157 91.748-64.532 128.173-108.999 36.567-44.642 64.426-100.111 64.426-164.861h-100c0 34.683-14.736 68.471-41.786 101.493-27.192 33.196-64.709 62.892-104.177 87.796l53.364 84.571Z" fill="#424242"/></g><g filter="url(#d)"><path d="M1110.08 1038.28c7.58-26.55-7.8-54.225-34.35-61.807-26.56-7.581-54.23 7.799-61.81 34.347l96.16 27.46Zm-96.16-27.46a286.887 286.887 0 0 1-82.518 133.2l67.4 73.87a386.948 386.948 0 0 0 111.278-179.61l-96.16-27.46Zm-82.518 133.2a286.968 286.968 0 0 1-140.191 70l18.55 98.26a386.996 386.996 0 0 0 189.041-94.39l-67.4-73.87Zm-140.191 70a287.024 287.024 0 0 1-156.064-14.07l-35.829 93.36a387.01 387.01 0 0 0 210.443 18.97l-18.55-98.26Zm-156.064-14.07A287.01 287.01 0 0 1 509.742 1106l-79.529 60.62a387.01 387.01 0 0 0 169.105 126.69l35.829-93.36ZM509.742 1106a286.942 286.942 0 0 1-57.358-145.808l-99.518 9.809a386.898 386.898 0 0 0 77.347 196.619l79.529-60.62Zm-57.358-145.808a286.923 286.923 0 0 1 27.789-154.198l-89.833-43.932a386.926 386.926 0 0 0-37.474 207.939l99.518-9.809Zm27.789-154.198c22.201-45.398 64.192-86.455 111.873-116.542l-53.364-84.571c-58.064 36.639-115.614 90.257-148.342 157.181l89.833 43.932ZM684.645 0v415.592h100V0h-100Zm-92.599 689.452c44.624-28.157 91.748-64.532 128.173-108.999 36.567-44.642 64.426-100.111 64.426-164.861h-100c0 34.683-14.736 68.471-41.786 101.493-27.192 33.196-64.709 62.892-104.177 87.796l53.364 84.571Z" fill="#424242"/></g><g filter="url(#e)"><path d="M1402.08 1038.28c7.58-26.55-7.8-54.225-34.35-61.807-26.56-7.581-54.23 7.799-61.81 34.347l96.16 27.46Zm-96.16-27.46a286.94 286.94 0 0 1-82.52 133.2l67.4 73.87a386.936 386.936 0 0 0 111.28-179.61l-96.16-27.46Zm-82.52 133.2a286.96 286.96 0 0 1-140.19 70l18.55 98.26c70.55-13.32 136.01-46 189.04-94.39l-67.4-73.87Zm-140.19 70a287.02 287.02 0 0 1-156.063-14.07l-35.829 93.36a387.005 387.005 0 0 0 210.442 18.97l-18.55-98.26Zm-156.063-14.07A287.01 287.01 0 0 1 801.742 1106l-79.529 60.62a387.01 387.01 0 0 0 169.105 126.69l35.829-93.36ZM801.742 1106a286.942 286.942 0 0 1-57.358-145.808l-99.518 9.809a386.898 386.898 0 0 0 77.347 196.619l79.529-60.62Zm-57.358-145.808a286.923 286.923 0 0 1 27.789-154.198l-89.833-43.932a386.926 386.926 0 0 0-37.474 207.939l99.518-9.809Zm27.789-154.198c22.201-45.398 64.192-86.455 111.873-116.542l-53.364-84.571c-58.064 36.639-115.614 90.257-148.342 157.181l89.833 43.932ZM976.645 0v415.592h99.995V0h-99.995Zm-92.599 689.452c44.624-28.157 91.748-64.532 128.174-108.999 36.57-44.642 64.42-100.111 64.42-164.861h-99.995c0 34.683-14.736 68.471-41.786 101.493-27.192 33.196-64.709 62.892-104.177 87.796l53.364 84.571Z" fill="#424242"/></g><g filter="url(#f)"><path d="M1694.08 1038.28c7.58-26.55-7.8-54.225-34.35-61.807-26.56-7.581-54.23 7.799-61.81 34.347l96.16 27.46Zm-96.16-27.46a286.94 286.94 0 0 1-82.52 133.2l67.4 73.87a386.936 386.936 0 0 0 111.28-179.61l-96.16-27.46Zm-82.52 133.2a286.96 286.96 0 0 1-140.19 70l18.55 98.26c70.55-13.32 136.01-46 189.04-94.39l-67.4-73.87Zm-140.19 70a287.01 287.01 0 0 1-156.06-14.07l-35.83 93.36a386.999 386.999 0 0 0 210.44 18.97l-18.55-98.26Zm-156.06-14.07a287.042 287.042 0 0 1-125.41-93.95l-79.53 60.62a387.052 387.052 0 0 0 169.11 126.69l35.83-93.36ZM1093.74 1106a287.077 287.077 0 0 1-57.36-145.808l-99.514 9.809a386.92 386.92 0 0 0 77.344 196.619l79.53-60.62Zm-57.36-145.808a286.942 286.942 0 0 1 27.79-154.198l-89.83-43.932a386.926 386.926 0 0 0-37.474 207.939l99.514-9.809Zm27.79-154.198c22.2-45.398 64.19-86.455 111.88-116.542l-53.37-84.571c-58.06 36.639-115.61 90.257-148.34 157.181l89.83 43.932ZM1268.64 0v415.592h100V0h-100Zm-92.59 689.452c44.62-28.157 91.74-64.532 128.17-108.999 36.57-44.642 64.42-100.111 64.42-164.861h-100c0 34.683-14.73 68.471-41.78 101.493-27.19 33.196-64.71 62.892-104.18 87.796l53.37 84.571Z" fill="#424242"/></g><g filter="url(#g)"><path d="M1986.08 1038.28c7.58-26.55-7.8-54.225-34.35-61.807-26.56-7.581-54.23 7.799-61.81 34.347l96.16 27.46Zm-96.16-27.46a286.94 286.94 0 0 1-82.52 133.2l67.4 73.87a386.936 386.936 0 0 0 111.28-179.61l-96.16-27.46Zm-82.52 133.2a286.96 286.96 0 0 1-140.19 70l18.55 98.26c70.55-13.32 136.01-46 189.04-94.39l-67.4-73.87Zm-140.19 70a287.01 287.01 0 0 1-156.06-14.07l-35.83 93.36a386.999 386.999 0 0 0 210.44 18.97l-18.55-98.26Zm-156.06-14.07a287.042 287.042 0 0 1-125.41-93.95l-79.53 60.62a387.052 387.052 0 0 0 169.11 126.69l35.83-93.36ZM1385.74 1106a287.077 287.077 0 0 1-57.36-145.808l-99.51 9.809a386.906 386.906 0 0 0 77.34 196.619l79.53-60.62Zm-57.36-145.808a286.942 286.942 0 0 1 27.79-154.198l-89.83-43.932a386.858 386.858 0 0 0-37.47 207.939l99.51-9.809Zm27.79-154.198c22.2-45.398 64.19-86.455 111.88-116.542l-53.37-84.571c-58.06 36.639-115.61 90.257-148.34 157.181l89.83 43.932ZM1560.64 0v415.592h100V0h-100Zm-92.59 689.452c44.62-28.157 91.74-64.532 128.17-108.999 36.57-44.642 64.42-100.111 64.42-164.861h-100c0 34.683-14.73 68.471-41.78 101.493-27.19 33.196-64.71 62.892-104.18 87.796l53.37 84.571Z" fill="#424242"/></g></g><defs><filter id="c" x="49" y="-10" width="801.014" height="1359" filterUnits="userSpaceOnUse" color-interpolation-filters="sRGB"><feFlood flood-opacity="0" result="BackgroundImageFix"/><feColorMatrix in="SourceAlpha" values="0 0 0 0 0 0 0 0 0 0 0 0 0 0 0 0 0 0 127 0" result="hardAlpha"/><feOffset dx="10" dy="10"/><feGaussianBlur stdDeviation="10"/><feColorMatrix values="0 0 0 0 0 0 0 0 0 0 0 0 0 0 0 0 0 0 0.25 0"/><feBlend in2="BackgroundImageFix" result="effect1_dropShadow_17163027"/><feBlend in="SourceGraphic" in2="effect1_dropShadow_17163027" result="shape"/></filter><filter id="d" x="341" y="-10" width="801.014" height="1359" filterUnits="userSpaceOnUse" color-interpolation-filters="sRGB"><feFlood flood-opacity="0" result="BackgroundImageFix"/><feColorMatrix in="SourceAlpha" values="0 0 0 0 0 0 0 0 0 0 0 0 0 0 0 0 0 0 127 0" result="hardAlpha"/><feOffset dx="10" dy="10"/><feGaussianBlur stdDeviation="10"/><feColorMatrix values="0 0 0 0 0 0 0 0 0 0 0 0 0 0 0 0 0 0 0.25 0"/><feBlend in2="BackgroundImageFix" result="effect1_dropShadow_17163027"/><feBlend in="SourceGraphic" in2="effect1_dropShadow_17163027" result="shape"/></filter><filter id="e" x="633" y="-10" width="801.014" height="1359" filterUnits="userSpaceOnUse" color-interpolation-filters="sRGB"><feFlood flood-opacity="0" result="BackgroundImageFix"/><feColorMatrix in="SourceAlpha" values="0 0 0 0 0 0 0 0 0 0 0 0 0 0 0 0 0 0 127 0" result="hardAlpha"/><feOffset dx="10" dy="10"/><feGaussianBlur stdDeviation="10"/><feColorMatrix values="0 0 0 0 0 0 0 0 0 0 0 0 0 0 0 0 0 0 0.25 0"/><feBlend in2="BackgroundImageFix" result="effect1_dropShadow_17163027"/><feBlend in="SourceGraphic" in2="effect1_dropShadow_17163027" result="shape"/></filter><filter id="f" x="925" y="-10" width="801.014" height="1359" filterUnits="userSpaceOnUse" color-interpolation-filters="sRGB"><feFlood flood-opacity="0" result="BackgroundImageFix"/><feColorMatrix in="SourceAlpha" values="0 0 0 0 0 0 0 0 0 0 0 0 0 0 0 0 0 0 127 0" result="hardAlpha"/><feOffset dx="10" dy="10"/><feGaussianBlur stdDeviation="10"/><feColorMatrix values="0 0 0 0 0 0 0 0 0 0 0 0 0 0 0 0 0 0 0.25 0"/><feBlend in2="BackgroundImageFix" result="effect1_dropShadow_17163027"/><feBlend in="SourceGraphic" in2="effect1_dropShadow_17163027" result="shape"/></filter><filter id="g" x="1217" y="-10" width="801.014" height="1359" filterUnits="userSpaceOnUse" color-interpolation-filters="sRGB"><feFlood flood-opacity="0" result="BackgroundImageFix"/><feColorMatrix in="SourceAlpha" values="0 0 0 0 0 0 0 0 0 0 0 0 0 0 0 0 0 0 127 0" result="hardAlpha"/><feOffset dx="10" dy="10"/><feGaussianBlur stdDeviation="10"/><feColorMatrix values="0 0 0 0 0 0 0 0 0 0 0 0 0 0 0 0 0 0 0.25 0"/><feBlend in2="BackgroundImageFix" result="effect1_dropShadow_17163027"/><feBlend in="SourceGraphic" in2="effect1_dropShadow_17163027" result="shape"/></filter><linearGradient id="b" x1="2048" y1="0" x2="0" y2="2048" gradientUnits="userSpaceOnUse"><stop stop-color="#CC7665"/><stop offset="1" stop-color="#E6AB71"/></linearGradient><clipPath id="a"><path fill="#fff" d="M0 0h2048v2048H0z"/></clipPath></defs></svg>

<svg width="2048" height="2048" viewBox="0 0 2048 2048" fill="none" xmlns="http://www.w3.org/2000/svg">
<g clip-path="url(#clip0_17163027)">
<rect width="2048" height="2048" fill="url(#paint0_linear_17163027)"/>
<g filter="url(#filter0_d_17163027)">
<path d="M818.079 1038.28C825.66 1011.73 810.28 984.055 783.727 976.473C757.174 968.892 729.503 984.272 721.921 1010.82L818.079 1038.28ZM721.921 1010.82C707.305 1062.02 678.733 1108.14 639.402 1144.02L706.802 1217.89C759.839 1169.5 798.368 1107.31 818.079 1038.28L721.921 1010.82ZM639.402 1144.02C600.071 1179.91 551.531 1204.14 499.211 1214.02L517.761 1312.28C588.311 1298.96 653.765 1266.28 706.802 1217.89L639.402 1144.02ZM499.211 1214.02C446.892 1223.9 392.855 1219.02 343.147 1199.95L307.318 1293.31C374.347 1319.03 447.212 1325.6 517.761 1312.28L499.211 1214.02ZM343.147 1199.95C293.438 1180.87 250.018 1148.34 217.742 1106L138.213 1166.62C181.737 1223.72 240.289 1267.58 307.318 1293.31L343.147 1199.95ZM217.742 1106C185.465 1063.66 165.606 1013.17 160.384 960.192L60.8659 970.001C67.9078 1041.45 94.6887 1109.53 138.213 1166.62L217.742 1106ZM160.384 960.192C155.162 907.211 164.783 853.821 188.173 805.994L98.3395 762.062C66.7991 826.557 53.8241 898.554 60.8659 970.001L160.384 960.192ZM188.173 805.994C210.374 760.596 252.365 719.539 300.046 689.452L246.682 604.881C188.618 641.52 131.068 695.138 98.3395 762.062L188.173 805.994ZM392.645 2.1019e-06V415.592L492.645 415.592V-2.1019e-06L392.645 2.1019e-06ZM300.046 689.452C344.67 661.295 391.794 624.92 428.219 580.453C464.786 535.811 492.645 480.342 492.645 415.592L392.645 415.592C392.645 450.275 377.909 484.063 350.859 517.085C323.667 550.281 286.15 579.977 246.682 604.881L300.046 689.452Z" fill="#424242"/>
</g>
<g filter="url(#filter1_d_17163027)">
<path d="M1110.08 1038.28C1117.66 1011.73 1102.28 984.055 1075.73 976.473C1049.17 968.892 1021.5 984.272 1013.92 1010.82L1110.08 1038.28ZM1013.92 1010.82C999.305 1062.02 970.733 1108.14 931.402 1144.02L998.802 1217.89C1051.84 1169.5 1090.37 1107.31 1110.08 1038.28L1013.92 1010.82ZM931.402 1144.02C892.071 1179.91 843.531 1204.14 791.211 1214.02L809.761 1312.28C880.311 1298.96 945.765 1266.28 998.802 1217.89L931.402 1144.02ZM791.211 1214.02C738.892 1223.9 684.855 1219.02 635.147 1199.95L599.318 1293.31C666.347 1319.03 739.212 1325.6 809.761 1312.28L791.211 1214.02ZM635.147 1199.95C585.438 1180.87 542.018 1148.34 509.742 1106L430.213 1166.62C473.737 1223.72 532.289 1267.58 599.318 1293.31L635.147 1199.95ZM509.742 1106C477.465 1063.66 457.606 1013.17 452.384 960.192L352.866 970.001C359.908 1041.45 386.689 1109.53 430.213 1166.62L509.742 1106ZM452.384 960.192C447.162 907.211 456.783 853.821 480.173 805.994L390.34 762.062C358.799 826.557 345.824 898.554 352.866 970.001L452.384 960.192ZM480.173 805.994C502.374 760.596 544.365 719.539 592.046 689.452L538.682 604.881C480.618 641.52 423.068 695.138 390.34 762.062L480.173 805.994ZM684.645 2.1019e-06V415.592L784.645 415.592V-2.1019e-06L684.645 2.1019e-06ZM592.046 689.452C636.67 661.295 683.794 624.92 720.219 580.453C756.786 535.811 784.645 480.342 784.645 415.592L684.645 415.592C684.645 450.275 669.909 484.063 642.859 517.085C615.667 550.281 578.15 579.977 538.682 604.881L592.046 689.452Z" fill="#424242"/>
</g>
<g filter="url(#filter2_d_17163027)">
<path d="M1402.08 1038.28C1409.66 1011.73 1394.28 984.055 1367.73 976.473C1341.17 968.892 1313.5 984.272 1305.92 1010.82L1402.08 1038.28ZM1305.92 1010.82C1291.3 1062.02 1262.73 1108.14 1223.4 1144.02L1290.8 1217.89C1343.84 1169.5 1382.37 1107.31 1402.08 1038.28L1305.92 1010.82ZM1223.4 1144.02C1184.07 1179.91 1135.53 1204.14 1083.21 1214.02L1101.76 1312.28C1172.31 1298.96 1237.77 1266.28 1290.8 1217.89L1223.4 1144.02ZM1083.21 1214.02C1030.89 1223.9 976.855 1219.02 927.147 1199.95L891.318 1293.31C958.347 1319.03 1031.21 1325.6 1101.76 1312.28L1083.21 1214.02ZM927.147 1199.95C877.438 1180.87 834.018 1148.34 801.742 1106L722.213 1166.62C765.737 1223.72 824.289 1267.58 891.318 1293.31L927.147 1199.95ZM801.742 1106C769.465 1063.66 749.606 1013.17 744.384 960.192L644.866 970.001C651.908 1041.45 678.689 1109.53 722.213 1166.62L801.742 1106ZM744.384 960.192C739.162 907.211 748.783 853.821 772.173 805.994L682.34 762.062C650.799 826.557 637.824 898.554 644.866 970.001L744.384 960.192ZM772.173 805.994C794.374 760.596 836.365 719.539 884.046 689.452L830.682 604.881C772.618 641.52 715.068 695.138 682.34 762.062L772.173 805.994ZM976.645 2.1019e-06V415.592L1076.64 415.592V-2.1019e-06L976.645 2.1019e-06ZM884.046 689.452C928.67 661.295 975.794 624.92 1012.22 580.453C1048.79 535.811 1076.64 480.342 1076.64 415.592L976.645 415.592C976.645 450.275 961.909 484.063 934.859 517.085C907.667 550.281 870.15 579.977 830.682 604.881L884.046 689.452Z" fill="#424242"/>
</g>
<g filter="url(#filter3_d_17163027)">
<path d="M1694.08 1038.28C1701.66 1011.73 1686.28 984.055 1659.73 976.473C1633.17 968.892 1605.5 984.272 1597.92 1010.82L1694.08 1038.28ZM1597.92 1010.82C1583.3 1062.02 1554.73 1108.14 1515.4 1144.02L1582.8 1217.89C1635.84 1169.5 1674.37 1107.31 1694.08 1038.28L1597.92 1010.82ZM1515.4 1144.02C1476.07 1179.91 1427.53 1204.14 1375.21 1214.02L1393.76 1312.28C1464.31 1298.96 1529.77 1266.28 1582.8 1217.89L1515.4 1144.02ZM1375.21 1214.02C1322.89 1223.9 1268.86 1219.02 1219.15 1199.95L1183.32 1293.31C1250.35 1319.03 1323.21 1325.6 1393.76 1312.28L1375.21 1214.02ZM1219.15 1199.95C1169.44 1180.87 1126.02 1148.34 1093.74 1106L1014.21 1166.62C1057.74 1223.72 1116.29 1267.58 1183.32 1293.31L1219.15 1199.95ZM1093.74 1106C1061.47 1063.66 1041.61 1013.17 1036.38 960.192L936.866 970.001C943.908 1041.45 970.689 1109.53 1014.21 1166.62L1093.74 1106ZM1036.38 960.192C1031.16 907.211 1040.78 853.821 1064.17 805.994L974.34 762.062C942.799 826.557 929.824 898.554 936.866 970.001L1036.38 960.192ZM1064.17 805.994C1086.37 760.596 1128.36 719.539 1176.05 689.452L1122.68 604.881C1064.62 641.52 1007.07 695.138 974.34 762.062L1064.17 805.994ZM1268.64 2.1019e-06V415.592L1368.64 415.592V-2.1019e-06L1268.64 2.1019e-06ZM1176.05 689.452C1220.67 661.295 1267.79 624.92 1304.22 580.453C1340.79 535.811 1368.64 480.342 1368.64 415.592L1268.64 415.592C1268.64 450.275 1253.91 484.063 1226.86 517.085C1199.67 550.281 1162.15 579.977 1122.68 604.881L1176.05 689.452Z" fill="#424242"/>
</g>
<g filter="url(#filter4_d_17163027)">
<path d="M1986.08 1038.28C1993.66 1011.73 1978.28 984.055 1951.73 976.473C1925.17 968.892 1897.5 984.272 1889.92 1010.82L1986.08 1038.28ZM1889.92 1010.82C1875.3 1062.02 1846.73 1108.14 1807.4 1144.02L1874.8 1217.89C1927.84 1169.5 1966.37 1107.31 1986.08 1038.28L1889.92 1010.82ZM1807.4 1144.02C1768.07 1179.91 1719.53 1204.14 1667.21 1214.02L1685.76 1312.28C1756.31 1298.96 1821.77 1266.28 1874.8 1217.89L1807.4 1144.02ZM1667.21 1214.02C1614.89 1223.9 1560.86 1219.02 1511.15 1199.95L1475.32 1293.31C1542.35 1319.03 1615.21 1325.6 1685.76 1312.28L1667.21 1214.02ZM1511.15 1199.95C1461.44 1180.87 1418.02 1148.34 1385.74 1106L1306.21 1166.62C1349.74 1223.72 1408.29 1267.58 1475.32 1293.31L1511.15 1199.95ZM1385.74 1106C1353.47 1063.66 1333.61 1013.17 1328.38 960.192L1228.87 970.001C1235.91 1041.45 1262.69 1109.53 1306.21 1166.62L1385.74 1106ZM1328.38 960.192C1323.16 907.211 1332.78 853.821 1356.17 805.994L1266.34 762.062C1234.8 826.557 1221.82 898.554 1228.87 970.001L1328.38 960.192ZM1356.17 805.994C1378.37 760.596 1420.36 719.539 1468.05 689.452L1414.68 604.881C1356.62 641.52 1299.07 695.138 1266.34 762.062L1356.17 805.994ZM1560.64 2.1019e-06V415.592L1660.64 415.592V-2.1019e-06L1560.64 2.1019e-06ZM1468.05 689.452C1512.67 661.295 1559.79 624.92 1596.22 580.453C1632.79 535.811 1660.64 480.342 1660.64 415.592L1560.64 415.592C1560.64 450.275 1545.91 484.063 1518.86 517.085C1491.67 550.281 1454.15 579.977 1414.68 604.881L1468.05 689.452Z" fill="#424242"/>
</g>
</g>
<defs>
<filter id="filter0_d_17163027" x="49" y="-10" width="801.014" height="1359" filterUnits="userSpaceOnUse" color-interpolation-filters="sRGB">
<feFlood flood-opacity="0" result="BackgroundImageFix"/>
<feColorMatrix in="SourceAlpha" type="matrix" values="0 0 0 0 0 0 0 0 0 0 0 0 0 0 0 0 0 0 127 0" result="hardAlpha"/>
<feOffset dx="10" dy="10"/>
<feGaussianBlur stdDeviation="10"/>
<feColorMatrix type="matrix" values="0 0 0 0 0 0 0 0 0 0 0 0 0 0 0 0 0 0 0.25 0"/>
<feBlend mode="normal" in2="BackgroundImageFix" result="effect1_dropShadow_17163027"/>
<feBlend mode="normal" in="SourceGraphic" in2="effect1_dropShadow_17163027" result="shape"/>
</filter>
<filter id="filter1_d_17163027" x="341" y="-10" width="801.014" height="1359" filterUnits="userSpaceOnUse" color-interpolation-filters="sRGB">
<feFlood flood-opacity="0" result="BackgroundImageFix"/>
<feColorMatrix in="SourceAlpha" type="matrix" values="0 0 0 0 0 0 0 0 0 0 0 0 0 0 0 0 0 0 127 0" result="hardAlpha"/>
<feOffset dx="10" dy="10"/>
<feGaussianBlur stdDeviation="10"/>
<feColorMatrix type="matrix" values="0 0 0 0 0 0 0 0 0 0 0 0 0 0 0 0 0 0 0.25 0"/>
<feBlend mode="normal" in2="BackgroundImageFix" result="effect1_dropShadow_17163027"/>
<feBlend mode="normal" in="SourceGraphic" in2="effect1_dropShadow_17163027" result="shape"/>
</filter>
<filter id="filter2_d_17163027" x="633" y="-10" width="801.014" height="1359" filterUnits="userSpaceOnUse" color-interpolation-filters="sRGB">
<feFlood flood-opacity="0" result="BackgroundImageFix"/>
<feColorMatrix in="SourceAlpha" type="matrix" values="0 0 0 0 0 0 0 0 0 0 0 0 0 0 0 0 0 0 127 0" result="hardAlpha"/>
<feOffset dx="10" dy="10"/>
<feGaussianBlur stdDeviation="10"/>
<feColorMatrix type="matrix" values="0 0 0 0 0 0 0 0 0 0 0 0 0 0 0 0 0 0 0.25 0"/>
<feBlend mode="normal" in2="BackgroundImageFix" result="effect1_dropShadow_17163027"/>
<feBlend mode="normal" in="SourceGraphic" in2="effect1_dropShadow_17163027" result="shape"/>
</filter>
<filter id="filter3_d_17163027" x="925" y="-10" width="801.014" height="1359" filterUnits="userSpaceOnUse" color-interpolation-filters="sRGB">
<feFlood flood-opacity="0" result="BackgroundImageFix"/>
<feColorMatrix in="SourceAlpha" type="matrix" values="0 0 0 0 0 0 0 0 0 0 0 0 0 0 0 0 0 0 127 0" result="hardAlpha"/>
<feOffset dx="10" dy="10"/>
<feGaussianBlur stdDeviation="10"/>
<feColorMatrix type="matrix" values="0 0 0 0 0 0 0 0 0 0 0 0 0 0 0 0 0 0 0.25 0"/>
<feBlend mode="normal" in2="BackgroundImageFix" result="effect1_dropShadow_17163027"/>
<feBlend mode="normal" in="SourceGraphic" in2="effect1_dropShadow_17163027" result="shape"/>
</filter>
<filter id="filter4_d_17163027" x="1217" y="-10" width="801.014" height="1359" filterUnits="userSpaceOnUse" color-interpolation-filters="sRGB">
<feFlood flood-opacity="0" result="BackgroundImageFix"/>
<feColorMatrix in="SourceAlpha" type="matrix" values="0 0 0 0 0 0 0 0 0 0 0 0 0 0 0 0 0 0 127 0" result="hardAlpha"/>
<feOffset dx="10" dy="10"/>
<feGaussianBlur stdDeviation="10"/>
<feColorMatrix type="matrix" values="0 0 0 0 0 0 0 0 0 0 0 0 0 0 0 0 0 0 0.25 0"/>
<feBlend mode="normal" in2="BackgroundImageFix" result="effect1_dropShadow_17163027"/>
<feBlend mode="normal" in="SourceGraphic" in2="effect1_dropShadow_17163027" result="shape"/>
</filter>
<linearGradient id="paint0_linear_17163027" x1="2048" y1="0" x2="0" y2="2048" gradientUnits="userSpaceOnUse">
<stop stop-color="#CC7665"/>
<stop offset="1" stop-color="#E6AB71"/>
</linearGradient>
<clipPath id="clip0_17163027">
<rect width="2048" height="2048" fill="white"/>
</clipPath>
</defs>
</svg>
